!!!COM: Lassus, Rudolphus
!!!CDT: 1563-1625
!!!OPR: Geistliche Psalmen mit dreyen Stimmen
!!!ONM: 7
!!!OTL@@LA: Domine Deus meus
!!!OTL-incipit@@DE: Auff dich mein lieber Herr und Gott
**kern	**text	**kern	**text	**kern	**text
*staff3	*staff3	*staff2	*staff2	*staff1	*staff1
*Ivox	*	*Ivox	*	*Ivox	*
*I"Bassus	*	*I"Tenor	*	*I"Cantus	*
*I'B	*	*I'T	*	*I'C	*
*clefC4	*	*clefC3	*	*clefC1	*
*k[]	*	*k[]	*	*k[]	*
*e:phr	*	*e:phr	*	*e:phr	*
*M2/1	*	*M2/1	*	*M2/1	*
*met(C|)	*	*met(C|)	*	*met(C|)	*
*MM180	*	*MM180	*	*MM180	*
=1	=1	=1	=1	=1	=1
0r	.	1d	Auff	1r	.
.	.	2d	dich	2r	.
.	.	2d	mein	2a	Auff
=2	=2	=2	=2	=2	=2
1r	.	2.A	lie-	2a	dich
.	.	.	.	2a	mein
.	.	4B	.	.	.
2r	.	2.c	.	1e	lie-
!LO:TX:a:i:t=c.f.	!	!	!	!	!
2A	Auff	.	.	.	.
.	.	4d	.	.	.
=3	=3	=3	=3	=3	=3
2A	dich	4e	.	2.cc	-ber
.	.	4f	.	.	.
2A	mein	2.e	.	.	.
.	.	.	.	8b	.
.	.	.	.	8a	.
2E	lie-	.	.	4g	.
.	.	8d	.	8f	.
.	.	8c	.	8e	.
2G	-ber	2B	.	2d	.
=4	=4	=4	=4	=4	=4
2F	Herr	2c	-ber	2a	Herr
2D	und	2d	Herr	1bn	und
0E	Gott/	2.c	uñ	.	.
.	.	.	.	2.a	.
.	.	8B	.	.	.
.	.	8A	.	.	.
=5	=5	=5	=5	=5	=5
.	.	1B	.	.	.
.	.	.	.	8g#i	.
.	.	.	.	8f#i	.
.	.	.	.	2g#i	.
2r	.	1A	Gott/	0a	Gott/
2e	steht	.	.	.	.
=6	=6	=6	=6	=6	=6
2f	mein	2r	.	.	.
2e	ver-	2A	Steht	.	.
2d	-traw-	2B-	mein	2r	.
!	!	!	!	!LO:TX:a:i:t=c.f.	!
2c#	-en	2A	ver-	2e	steht
=7	=7	=7	=7	=7	=7
2r	.	2d	-traw-	2f	mein
*	*ij	*	*	*	*
2A	steht	2c#	-en	2e	ver-
2B-	mein	2r	.	2d	-traw-
2A	ver-	2e	in	2c#	-en
=8	=8	=8	=8	=8	=8
2D	-traw-	2.f	der	1d	in
2.B-	-en	.	.	.	.
.	.	4e	.	.	.
.	.	1d	.	1f	der
*	*Xij	*	*	*	*
4B-	in	.	.	.	.
2d	der	.	.	.	.
=9	=9	=9	=9	=9	=9
1A	not/	1c#	not/	2e	not/
.	.	.	.	2e	hilff
2r	.	2r	.	1.a	mir
2A	hilff	2e	Hilff	.	.
=10	=10	=10	=10	=10	=10
2.d	mir	2.f	mir	.	.
.	.	.	.	2a	von
2c	von	2e	võ	.	.
.	.	.	.	2g	al-
4B	al-	4d	al-	.	.
2A	-ler	2c	-ler	2a	-ler
=11	=11	=11	=11	=11	=11
2.G	wi-	2d	wi-	1b	wi-
.	.	2.g	-der-	.	.
8F	.	.	.	.	.
8E	.	.	.	.	.
2A	.	.	.	1cc	-der-
.	.	8f#i	.	.	.
.	.	8e	.	.	.
2A	-der-	2f#i	.	.	.
=12	=12	=12	=12	=12	=12
2G	-part/	2g	-part/	1b	part/
2B	von	2d	von	.	.
2A	den	2c	den	2r	.
2G	die	2d	die	2b	von
=13	=13	=13	=13	=13	=13
2.c	mich	2.e	mich	2a	den
.	.	.	.	2g	die
4B	ver-	4d	ver-	.	.
2A	-fol-	2e	-fol-	2cc	mich
2G	-gen	2.g	-gen	2b	ver-
=14	=14	=14	=14	=14	=14
1D	hart/	.	.	2a	-fol-
.	.	8f#i	.	.	.
.	.	8e	.	.	.
.	.	2f#i	.	2a	-gen
2r	.	2g	hart/	1g	hart/
!LO:TX:a:i:t=c.f.	!	!	!	!	!
2E	er-	2c	er-	.	.
=15	=15	=15	=15	=15	=15
2G	-ret-	2B	-ret-	2r	.
2G	-te	2B	-te	2d	Er-
1A	mich	1.c	mich	2f	-ret-
.	.	.	.	2e	-te
=16	=16	=16	=16	=16	=16
1E	auß	.	.	2.g	mich
.	.	2B	auß	.	.
.	.	.	.	4g	auß
2C	fein-	2e	fein-	4g	fein-
.	.	.	.	4a	.
2D	-des	2d	-des	2.bn	.
=17	=17	=17	=17	=17	=17
1F	han-	2.c	han-	.	.
.	.	.	.	4a	-des
.	.	.	.	2.a	han-
.	.	8B	.	.	.
.	.	8A	.	.	.
1E	-den/	1B	.	.	.
.	.	.	.	8g#i	.
.	.	.	.	8f#i	.
.	.	.	.	2g#i	.
=18	=18	=18	=18	=18	=18
2r	.	1A	-den/	1a	-den/
2c	das	.	.	.	.
2B	er	2r	.	1r	.
2A	nicht	2f	Das	.	.
=19	=19	=19	=19	=19	=19
1G	nach	2e	er	1r	.
.	.	2d	nit	.	.
!	!	!	!	!LO:TX:a:i:t=c.f.	!
2r	.	2c	nach	1g	Daß
*	*ij	*	*	*	*
2E	daß	4r	.	.	.
*	*	*	*ij	*	*
.	.	4G	das	.	.
=20	=20	=20	=20	=20	=20
2D	er	2A	er	2f	er
2C	nicht	2c	nit	2e	nicht
2G	nach	2.B	nach	2d	nach
*	*Xij	*	*	*	*
2E	der	.	.	2g	der
*	*	*	*Xij	*	*
.	.	4B	der	.	.
=21	=21	=21	=21	=21	=21
2F#	le-	2.d	le-	2a	le-
2G	-wen	.	.	2b	-wen
.	.	4d	-wen	.	.
2C	weiß/	1e	weis	4cc	weiß/
.	.	.	.	8b	.
.	.	.	.	8a	.
!LO:TX:a:i:t=c.f.	!	!	!	!	!
2c	mein	.	.	2g	.
=22	=22	=22	=22	=22	=22
2B	seel	4r	.	2r	.
.	.	4g	Mein	.	.
2A	er-	4f	seel	2cc	mein
.	.	2e	er-	.	.
2G	-hasch	.	.	2b	seel
.	.	2d	-hasch	.	.
2F	und	.	.	2a	er-
.	.	2c	und	.	.
=23	=23	=23	=23	=23	=23
1E	gar	.	.	2.g	-hasch
.	.	4B	gar	.	.
.	.	2.c	zer-	.	.
.	.	.	.	4e	und
1D	zer-	.	.	2f	gar
.	.	8B	.	.	.
.	.	8A	.	.	.
.	.	2B	.	2d	zer-
=24	=24	=24	=24	=24	=24
1C	-reiß/	2c	-reiß/	1.e	-reiß/
.	.	2G	weñ	.	.
2r	.	2c	kein	.	.
2E	weñ	2B	not-	1g	weñ
=25	=25	=25	=25	=25	=25
2c	kein	1e	-hel-	.	.
2A	not-	.	.	1cc	kein
1e	-hel-	1g	-ffer	.	.
.	.	.	.	2b	not-
=26	=26	=26	=26	=26	=26
2c#	-ffer	2e	wer	2.a	-hel-
2d	wer,	2f#	ver-	.	.
.	.	.	.	4a	-ffer
2r	.	1g	-han-	2b	wer
!LO:TX:a:i:t=c.f.	!	!	!	!	!
2G	wenn	.	.	2b	ver-
=27	=27	=27	=27	=27	=27
2c	kein	2g	-den.	2e	-han-
*	*	*	*ij	*	*
2B	not-	2G	wenn	2d	-den/
2A	-hel-	2c	kein	4r	.
.	.	.	.	4a	wenn
2G	-ffer	2B	not-	2dd	kein
=28	=28	=28	=28	=28	=28
2r	.	2A	-hel-	2cc	not-
1E	wer	2c	-ffer	2.g	-hel-
.	.	2.B	wer	.	.
.	.	.	.	4g	-ffer
2G	ver-	.	.	2d	wer
.	.	4c	.	.	.
=29	=29	=29	=29	=29	=29
0F	-han-	2d	.	2r	.
.	.	2c	ver-	2a	ver-
.	.	1A	-han-	2cc	-han-
.	.	.	.	1a	.
=30	=30	=30	=30	=30	=30
0Ell	-den.	0Bll	-den.	.	.
.	.	.	.	4g#	.
.	.	.	.	4f#	.
.	.	.	.	1g#ll	-den.
==	==	==	==	==	==
*-	*-	*-	*-	*-	*-
!!!RDF**kern: l = terminal long
!!!RDF**kern: i = editorial accidental
!!!AGN: Psalm; Tricinium
!!!LIB: Ulenberg, Caspar
!!!LIB-CDT: 1548/12/24-1617/02/16
!!!YOR: https://mdz-nbn-resolving.de/details:bsb00075346
!!!YOR-alternative: https://mdz-nbn-resolving.de/details:bsb00072990
!!!YOO: München, Bayerische Staatsbibliothek
!!!URL-scan: https://www.digitale-sammlungen.de/de/view/bsb00075346?page=17 Cantus
!!!URL-scan: https://www.digitale-sammlungen.de/de/view/bsb00075346?page=77 Tenor
!!!URL-scan: https://www.digitale-sammlungen.de/de/view/bsb00075346?page=133 Bassus
!!!IIIF: https://api.digitale-sammlungen.de/iiif/presentation/v2/bsb00075346/manifest
!!!EED: Wolfgang Drescher
!!!END: 2023/02/13
!!!ENC: Wolfgang Drescher
!!!EEV: 2023/02/13
!!!title: @{ONM}. @{OTL} / <i>@{OTL-incipit@@DE}</i>